X: 743
T: Old Jake Gillie
B: jims roots
M:C|
L:1/8
Q: 1/4=100
K:D
V:1 
"D"f2fa f2d2 | fded- d3(e | f)afe dfed | "A"(BA)FE "D"D3((3A/B/c/ |
"D"d)efd e2d2 | fded- d3(e | f)afe dfed | "A"(BA)FE "D"D3 ||
"D"(E | F)ABF .A2BA | FBAF (E/F/E)DE | FABF AcBF | "A"AF(EF) "D"D3(E |
"D"F2)BF AFBF | FBAF "A"[E2A2]DE | "D"FABF AcBF | "A"AF(EF) "D"D3(e ||
"D"f2)a2 f2 de | fde(d d3)(=f | ^f)afe dfed | "A"(BA)FE "D"D3((3A/B/c/ |
"D"d)efd e2de | fded- d3(=f | ^f)afe dfed | "A"(BA)FE "D"D3(f ||
"D"a2)ab a2f2 | abaf edfg | a2ab a+slide+g2(e | "A"f)de(d "D"d3)(e |
"D"a2)a2 a2fg | abaf edfg | a2 ag a2g2 | "A"fde(d "D"d4) ||
% abcbook-tune_id 6298c279c8e983f4ada5b0b8


% abcbook-boost 0
% abcbook-tablature 
% abcbook-transpose 
% abcbook-lastupdated 1654178425909
% abcbook-soundfonts 
% abcbook-repeats 1


